X: 8304
T: Corofin, The
R: slide
M: 12/8
K: Gmajor
|:D|D2E G2A B3 BAB|c2B c2B A3A2G|
D2E G2A B2A B2d|edB dBA G3G2:|
|:B|ded B2c ded B2c|ded BAG E3E2B|
ded BAB ded B2d|edB dBA G3G2:|

